X:32
T:The Lilley
S:John Moore's Book 1
Z:Transcribed by David Jacobs  April 2021
M:C|
L:1/8
K:D
%%VWML: Moore1-4493-p19-0
F:http://www.vwml.org/record/Moore1/4493/p20
dcdA B2 AG|F2 ED E4|dcdA B2 AG|F2 E2 D4:|
|: FAFD FAFD|BAGF F2E2|FAFD GBAG|F2E2D4:|
|:dcdA B2 (ef)|gfed dcBA|dcdB AdcB|AGFE D4:|]
